svg/brand-ft-masthead.svg

<svg width="1053" height="86" viewBox="0 0 1053 86" xmlns="http://www.w3.org/2000/svg"><title>Slice 1</title><g fill="#231F20" fill-rule="evenodd"><path d="M25.24,72.65 C25.24,78.62 26.87,79.98 37.86,79.98 L37.86,83.65 L0,83.65 L0,79.98 C7.46,79.98 10.04,79.299 10.04,72.779 L10.04,12.279 C10.04,5.779 7.46,5.079 0,5.079 L0,1.4 L51.98,1.4 C58.9,1.4 61.34,1.14 63.51,0.73 L64.01,23.93 L60.81,23.93 C59.11,6.95 54.81,5.46 39.11,5.46 L25.3,5.46 L25.3,39.12 L36.5,39.12 C47.23,39.12 47.9,37.35 48.72,28.94 L51.7,28.94 L51.7,53.5 L48.72,53.5 C47.9,45.08 47.22,43.46 36.52,43.46 L25.22,43.46 L25.22,72.63"/><path d="M73.88,83.63 L73.88,79.96 C81.34,79.96 83.92,79.279 83.92,72.76 L83.92,12.26 C83.92,5.76 81.34,5.06 73.88,5.06 L73.88,1.4 L109.16,1.4 L109.16,5.1 C101.7,5.1 99.12,5.77 99.12,12.3 L99.12,72.8 C99.12,79.3 101.7,80 109.16,80 L109.16,83.65 L73.88,83.65"/><path d="M192.13,85 L135.95,15.25 L135.95,72.38 C135.95,79.029 140.55,79.981 148.3,79.981 L148.3,83.641 L118.44,83.641 L118.44,79.981 C126.18,79.981 130.52,79.03 130.52,72.38 L130.52,9 C126.86,5.34 124.28,5.07 118.44,5.07 L118.44,1.4 L144.91,1.4 L188.11,56.9 L188.11,12.68 C188.11,6.03 183.51,5.08 175.81,5.08 L175.81,1.4 L205.71,1.4 L205.71,5.07 C198.01,5.07 193.61,6.02 193.61,12.67 L193.61,85 L192.31,85"/><path d="M229.75,83.66 L199.95,83.66 L199.95,79.98 C207.82,79.98 211.35,78.879 213.79,72.25 L240.54,0.73 L248,0.73 L276.9,72.79 C279.5,79.09 280.7,79.891 286.53,79.891 L286.53,83.491 L252.06,83.491 L252.06,79.891 C262.66,79.891 263.6,79.09 261.02,72.69 L252.52,50.791 L226.72,50.791 L219.12,71.991 C216.72,78.491 220.52,79.86 229.62,79.86 L229.62,83.561 L229.75,83.66 Z M228.51,46.46 L250.91,46.46 L239,17 L228.3,46.471 L228.51,46.46 L228.51,46.46 Z"/><path d="M363.875,85 L307.687,15.25 L307.687,72.375 C307.687,79.025 312.312,79.975 320.037,79.975 L320.037,83.651 L290.874,83.651 L290.874,79.975 C298.049,79.975 302.249,79.026 302.249,72.375 L302.249,9.125 C298.187,5.337 295.061,5.075 288.412,5.075 L288.412,1.413 L316.637,1.413 L359.887,56.913 L359.887,12.663 C359.887,6.038 355.262,5.076 347.512,5.076 L347.512,1.413 L377.387,1.413 L377.387,5.076 C369.637,5.076 365.387,6.026 365.387,12.676 L365.387,85 L364.012,85"/><path d="M445,1.275 L447.05,1.275 L448.238,25.837 L445.113,25.962 C442.988,11.862 435.613,4.524 421.863,4.524 C406.613,4.524 394.988,17.549 394.988,37.649 C394.988,63.274 411.113,77.812 428.113,77.812 C435.363,77.812 442.013,75.775 448.388,68.849 L450.662,71.299 C445.375,78.75 435,85 421.05,85 C400.3,85 379.238,69.4 379.238,43.2 C379.238,17.95 398.363,0.05 421.613,0.05 C432.613,0.05 438.488,4.8 441.363,4.8 C442.988,4.8 443.988,3.575 444.863,1.275"/><path d="M457.44,83.641 L457.44,79.981 C464.9,79.981 467.48,79.3 467.48,72.78 L467.48,12.28 C467.48,5.78 464.9,5.08 457.44,5.08 L457.44,1.4 L492.719,1.4 L492.719,5.1 C485.259,5.1 482.679,5.77 482.679,12.3 L482.679,72.8 C482.679,79.3 485.259,80 492.719,80 L492.719,83.65 L457.44,83.65"/><path d="M526.1,83.65 L498.42,83.65 L498.42,79.98 C504.52,79.98 507.78,78.879 510.22,72.25 L537.1,0.73 L544.56,0.73 L573.46,72.79 C576.04,79.09 577.26,79.891 583.1,79.891 L583.1,83.491 L548.63,83.491 L548.63,79.891 C559.231,79.891 560.16,79.09 557.59,72.69 L549,50.9 L523.2,50.9 L515.6,72.07 C513.161,78.57 516.96,79.9 526.05,79.9 L526.05,83.57 L526.1,83.65 Z M524.88,46.45 L547.28,46.45 L535.6,17 L524.88,46.46 L524.88,46.45 L524.88,46.45 Z"/><path d="M588.75,83.57 L588.75,79.9 C596.21,79.9 598.79,79.23 598.79,72.7 L598.79,12.2 C598.79,5.7 596.19,5 588.69,5 L588.69,1.4 L623.79,1.4 L623.79,5.1 C616.29,5.1 613.89,5.77 613.89,12.3 L613.89,73.35 C613.89,78.78 616.59,79.451 621.09,79.451 L625.29,79.451 C641.09,79.451 646.29,77.151 650.59,58.972 L653.59,59.371 L651.01,83.671 L588.61,83.671"/><path d="M758.7,0.73 L759.099,25.29 L756,25.29 C754.22,7.59 750,5.39 734.28,5.39 L729.28,5.39 L729.28,72.59 C729.28,78.99 731.71,79.891 741.88,79.891 L741.88,83.491 L701.32,83.491 L701.32,79.891 C711.49,79.891 714.07,78.911 714.07,72.53 L714.07,5.5 L709.07,5.5 C693.309,5.5 689.099,7.67 687.37,25.3 L684.22,25.3 L684.62,0.75 C686.8,1.15 689.24,1.43 696.16,1.43 L747.26,1.43 C754.18,1.43 756.62,1.21 758.79,0.8"/><path d="M767.79,83.7 L767.79,80 C775.19,80 777.79,79.3 777.79,72.8 L777.79,12.3 C777.79,5.8 775.19,5.1 767.69,5.1 L767.69,1.4 L803,1.4 L803,5.1 C795.5,5.1 792.94,5.77 792.94,12.3 L792.94,72.8 C792.94,79.3 795.54,80 802.99,80 L802.99,83.65 L767.69,83.65"/><path d="M909.12,1.4 L909.12,5.07 C901.65,5.07 898.39,5.47 899.07,11.99 L905.44,72.99 C906.139,79.189 908.54,79.89 915.839,79.89 L915.839,83.49 L880.739,83.49 L880.739,79.89 C888.079,79.89 890.638,79.189 890.109,72.99 L883.5,8.8 L857.6,85 L856.5,85 L831.42,8.8 L825.18,72.85 C824.5,79.451 828.981,79.951 836.451,79.951 L836.451,83.651 L809.051,83.651 L809.051,80 C816.501,80 819.081,78.77 819.621,72.93 L825.861,12.03 C826.541,5.51 823.281,5.1 815.821,5.1 L815.821,1.4 L844.72,1.4 L862.09,57.6 L880.79,1.4 L909.09,1.4"/><path d="M974.875,53.5 L971.875,53.5 C971.063,45.1 970.375,43.475 959.662,43.475 L947.162,43.475 L947.162,73.35 C947.162,78.763 949.888,79.438 954.362,79.438 L961.112,79.438 C976.987,79.438 982.112,77.138 986.487,58.938 L989.487,59.35 L986.612,83.651 L921.862,83.651 L921.862,79.975 C929.237,79.975 931.862,79.3 931.862,72.787 L931.862,12.25 C931.862,5.75 929.237,5.075 921.737,5.075 L921.737,1.413 L983.862,1.413 L984.112,21.913 L981.25,21.913 C979.338,7.375 975.675,5.613 959.375,5.613 L947.175,5.613 L947.175,39.126 L959.675,39.126 C970.375,39.126 971.05,37.376 971.875,28.951 L974.875,28.951 L974.875,53.5"/><path d="M1040.25,66.688 C1040.25,59.225 1035.5,55.413 1027.375,50.938 L1014.338,44.151 C1004.588,38.863 998.737,33.151 998.737,22.851 C998.737,9.976 1009.612,0.051 1024.112,0.051 C1033.987,0.051 1038.987,4.801 1041.862,4.801 C1043.737,4.801 1044.487,3.576 1045.362,1.276 L1047.612,1.276 L1048.862,24.338 L1045.862,24.463 C1044.237,13.338 1036.237,4.663 1024.987,4.663 C1016.487,4.663 1010.862,9.688 1010.862,16.875 C1010.862,24.75 1016.862,27.875 1023.362,31.538 L1034.612,37.5 C1045.112,43.2 1052.612,49.037 1052.612,60.037 C1052.612,74.537 1040.112,85 1024.362,85 C1013.362,85 1007.862,79.713 1004.987,79.713 C1002.987,79.713 1002.112,81.338 1001.237,83.912 L998.862,83.912 L997.5,59.35 L1000.5,58.951 C1002.812,74.139 1013.375,80.526 1023.975,80.526 C1032.8,80.526 1040.263,76.588 1040.263,66.688"/></g></svg>

<svg xmlns="http://www.w3.org/2000/svg" width="1053.75" height="85" viewBox="0 0 1053.75 85"><defs><clipPath id="a"><path d="M0 67.96h842.2V0H0v67.96z"/></clipPath><clipPath id="b"><path d="M0 67.96h842.2V0H0v67.96z"/></clipPath></defs><path d="M25.24 72.65c0 5.97 1.63 7.33 12.62 7.33v3.67H0v-3.67c7.46 0 10.04-.68 10.04-7.2v-60.5c0-6.5-2.58-7.2-10.04-7.2V1.4h51.98c6.92 0 9.36-.26 11.53-.67l.5 23.2h-3.2c-1.7-16.98-6-18.47-21.7-18.47H25.3v33.66h11.2c10.73 0 11.4-1.77 12.22-10.18h2.98V53.5h-2.98c-.82-8.42-1.5-10.04-12.2-10.04h-11.3v29.17m48.66 11v-3.67c7.46 0 10.04-.68 10.04-7.2v-60.5c0-6.5-2.58-7.2-10.04-7.2V1.4h35.28v3.7c-7.46 0-10.04.67-10.04 7.2v60.5c0 6.5 2.58 7.2 10.04 7.2v3.65H73.88M192.13 85l-56.18-69.75v57.13c0 6.65 4.6 7.6 12.35 7.6v3.66h-29.86v-3.66c7.74 0 12.08-.95 12.08-7.6V9c-3.66-3.66-6.24-3.93-12.08-3.93V1.4h26.47l43.2 55.5V12.68c0-6.65-4.6-7.6-12.3-7.6V1.4h29.9v3.67c-7.7 0-12.1.95-12.1 7.6V85h-1.3m36.2-38.54h22.4L239 17l-10.7 29.47zm1.24 37.2h-29.8v-3.68c7.87 0 11.4-1.1 13.84-7.73L240.54.73H248l28.9 72.06c2.6 6.3 3.8 7.1 9.63 7.1v3.6h-34.47v-3.6c10.6 0 11.54-.8 8.96-7.2l-8.5-21.9h-25.8l-7.6 21.2c-2.4 6.5 1.4 7.87 10.5 7.87v3.7" fill="#231f20"/><g clip-path="url(#a)" fill="#231f20" transform="matrix(1.25 0 0 -1.25 0 85)"><path d="M291.1 0l-44.95 55.8V10.1c0-5.32 3.7-6.08 9.88-6.08V1.08H232.7v2.94c5.74 0 9.1.76 9.1 6.08v50.6c-3.25 3.03-5.75 3.24-11.07 3.24v2.93h22.58l34.6-44.4v35.4c0 5.3-3.7 6.07-9.9 6.07v2.93h23.9v-2.93c-6.2 0-9.6-.76-9.6-6.08V0h-1.1M356 66.98h1.64l.95-19.65-2.5-.1c-1.7 11.28-7.6 17.15-18.6 17.15-12.2 0-21.5-10.42-21.5-26.5 0-20.5 12.9-32.13 26.5-32.13 5.8 0 11.12 1.63 16.22 7.17l1.82-1.96C356.3 5 348 0 336.84 0c-16.6 0-33.45 12.48-33.45 33.44 0 20.2 15.3 34.52 33.9 34.52 8.8 0 13.5-3.8 15.8-3.8 1.3 0 2.1.98 2.8 2.82"/></g><path d="M457.44 83.64v-3.66c7.46 0 10.04-.68 10.04-7.2v-60.5c0-6.5-2.58-7.2-10.04-7.2V1.4h35.28v3.7c-7.46 0-10.04.67-10.04 7.2v60.5c0 6.5 2.58 7.2 10.04 7.2v3.65h-35.28m67.44-37.2h22.4L535.6 17l-10.72 29.46zm1.22 37.2h-27.68v-3.67c6.1 0 9.36-1.1 11.8-7.73L537.1.73h7.46l28.9 72.06c2.58 6.3 3.8 7.1 9.64 7.1v3.6h-34.47v-3.6c10.6 0 11.53-.8 8.96-7.2L549 50.9h-25.8l-7.6 21.17c-2.44 6.5 1.36 7.83 10.45 7.83v3.67m62.7 0V79.9c7.46 0 10.04-.67 10.04-7.2V12.2c0-6.5-2.6-7.2-10.1-7.2V1.4h35.1v3.7c-7.5 0-9.9.67-9.9 7.2v61.05c0 5.43 2.7 6.1 7.2 6.1h4.2c15.8 0 21-2.3 25.3-20.48l3 .4-2.58 24.3h-62.4M758.7.73l.4 24.56H756c-1.78-17.7-6-19.9-21.72-19.9h-5v67.2c0 6.4 2.43 7.3 12.6 7.3v3.6h-40.56v-3.6c10.17 0 12.75-.98 12.75-7.36V5.5h-5c-15.76 0-19.97 2.17-21.7 19.8h-3.15l.4-24.55c2.18.4 4.62.68 11.54.68h51.1c6.92 0 9.36-.22 11.53-.63m9 82.9V80c7.4 0 10-.7 10-7.2V12.3c0-6.5-2.6-7.2-10.1-7.2V1.4H803v3.7c-7.5 0-10.06.67-10.06 7.2v60.5c0 6.5 2.6 7.2 10.05 7.2v3.65h-35.3M909.12 1.4v3.67c-7.47 0-10.73.4-10.05 6.92l6.37 61c.7 6.2 3.1 6.9 10.4 6.9v3.6h-35.1v-3.6c7.34 0 9.9-.7 9.37-6.9L883.5 8.8 857.6 85h-1.1L831.42 8.8l-6.24 64.05c-.68 6.6 3.8 7.1 11.27 7.1v3.7h-27.4V80c7.45 0 10.03-1.23 10.57-7.07l6.24-60.9c.68-6.52-2.58-6.93-10.04-6.93V1.4h28.9l17.37 56.2 18.7-56.2h28.3" fill="#231f20"/><g clip-path="url(#b)" fill="#231f20" transform="matrix(1.25 0 0 -1.25 0 85)"><path d="M779.9 25.2h-2.4c-.65 6.72-1.2 8.02-9.77 8.02h-10V9.32c0-4.33 2.18-4.87 5.76-4.87h5.4c12.7 0 16.8 1.84 20.3 16.4l2.4-.33-2.3-19.44h-51.8v2.94c5.9 0 8 .54 8 5.75V58.2c0 5.2-2.1 5.74-8.1 5.74v2.93h49.7l.2-16.4H785c-1.53 11.63-4.46 13.04-17.5 13.04h-9.76V36.7h10c8.56 0 9.1 1.4 9.76 8.14h2.4V25.2m52.3-10.55c0 5.97-3.8 9.02-10.3 12.6l-10.43 5.43c-7.8 4.23-12.48 8.8-12.48 17.04 0 10.3 8.7 18.24 20.3 18.24 7.9 0 11.9-3.8 14.2-3.8 1.5 0 2.1.98 2.8 2.82h1.8l1-18.45-2.4-.1c-1.3 8.9-7.7 15.84-16.7 15.84-6.8 0-11.3-4.02-11.3-9.77 0-6.3 4.8-8.8 10-11.73l9-4.77c8.4-4.56 14.4-9.23 14.4-18.03 0-11.6-10-19.97-22.6-19.97-8.8 0-13.2 4.23-15.5 4.23-1.6 0-2.3-1.3-3-3.36h-1.9L798 20.52l2.4.32c1.85-12.15 10.3-17.26 18.78-17.26 7.06 0 13.03 3.15 13.03 11.07"/></g></svg>
